X:233
T:Dew Drop Waltz. Le4.233, The
M:3/4
L:1/4
Q:3/4=80
N:* Time signature 3/2 in Mss
B:L.Leadley MS#4 c1850
Z:Village Music Project 2016 Steve Mansfield
K:D
"*" F3- | FDB | A3- | A3 | A3- | AFe | d3- | d3 |
d3- | dce | G3- | {A}GFG | B3- | BAF | D3 | D3 |
f3- | fdg | a3- | a3 | a3- | afe' | d'3- | d'3 |
d'3- | d'_e'=e' | f'3 | f'd'f | a3- | age | d3- | d2 ||
|: a | ag>B | (B2g) | gf>A | (A2f) | fe>G | G2e | ed>A | A2a |
ag>B | (B2g) | gf>A | A2f | (fe>)b | ba>f' | f'2e' | d'2 :|]

